!!!SOCIAL_FUNCTION:	dream songs
!!!PDT:	1932
!!!OTL: No_58_Song_for_Working_Magic.krn
!!!REG: Wisconsin
!!!LANG: Non-Tone
!!!LING_GROUP: Algonquin
**kern
*staff1
=1-
=
*clefF4
*k[f#c#g#]
*M2/4
8e\L
8e\J
8e\L
8e\J
=2
(8.e\L
16c#\Jk)
8c#\L
8e\J
=3
4e\
8c#\L
8e\J
=4
(8e\L
8c#\J)
8c#\
8r
=5
8e\L
8e\J
8c#\L
8c#\J
=6
(8.c#\L
16A\Jk)
8A\L
8A\J
=7
4A\
8A\L
8A\J
=8
(8A\L
8F#\J)
8F#\
8r
=9
8A\L
8A\J
8A\L
8A\J
=10
(8.A\L
16F#\Jk)
8F#\L
8A\J
=11
4A\
8A\L
8A\J
=12
4A\
8A\
8r
==:|!
*-
